assets/images/ywc18/icon/instagram.svg

<svg width="55" height="54" fill="none" xmlns="http://www.w3.org/2000/svg"><path d="M16.2642.035156C7.70345.035156.719727 7.01888.719727 15.5796v22.4638c0 8.5607 6.983723 15.5444 15.544473 15.5444h22.4637c8.5607 0 15.5445-6.9837 15.5445-15.5444V15.5796c0-8.56072-6.9838-15.544444-15.5445-15.544444H16.2642zm0 4.119434h22.4637c6.3321 0 11.425 5.08493 11.425 11.42501v22.4638c0 6.332-5.0849 11.425-11.425 11.425H16.2642c-6.33207 0-11.42504-5.085-11.42504-11.425V15.5796c0-6.33204 5.08493-11.42501 11.42504-11.42501zm26.6797 4.11943c-1.7057 0-3.0896 1.38388-3.0896 3.08958 0 1.7057 1.3839 3.0896 3.0896 3.0896s3.0896-1.3839 3.0896-3.0896-1.3839-3.08958-3.0896-3.08958zM27.496 12.3935c-7.9411 0-14.418 6.4768-14.418 14.418 0 7.9411 6.4769 14.418 14.418 14.418 7.9412 0 14.4181-6.4769 14.4181-14.418 0-7.9412-6.4769-14.418-14.4181-14.418zm0 4.1194c5.7125 0 10.2986 4.5861 10.2986 10.2986S33.2085 37.1101 27.496 37.1101 17.1975 32.524 17.1975 26.8115s4.586-10.2986 10.2985-10.2986z" fill="#FF5D29"/><path d="M2.08313 15.5796c0-7.80773 6.37331-14.18104 14.18107-14.18104h22.4637c7.8078 0 14.1811 6.37331 14.1811 14.18104v22.4638c0 7.8077-6.3733 14.181-14.1811 14.181H16.2642c-7.80776 0-14.18107-6.3733-14.18107-14.181V15.5796zM38.7279 2.79119H16.2642c-7.09372 0-12.78844 5.70401-12.78844 12.78841v22.4638c0 7.0936 5.70401 12.7884 12.78844 12.7884h22.4637c7.0937 0 12.7884-5.7041 12.7884-12.7884V15.5796c0-7.0937-5.704-12.78841-12.7884-12.78841zm2.4898 8.57241c0-.9527.7735-1.72618 1.7262-1.72618s1.7262.77348 1.7262 1.72618c0 .9527-.7735 1.7262-1.7262 1.7262s-1.7262-.7735-1.7262-1.7262zM14.4414 26.8115c0-7.1882 5.8665-13.0546 13.0546-13.0546 7.1882 0 13.0547 5.8664 13.0547 13.0546 0 7.1882-5.8665 13.0546-13.0547 13.0546-7.1881 0-13.0546-5.8664-13.0546-13.0546zm24.7166 0c0-6.4655-5.1965-11.662-11.662-11.662-6.4654 0-11.6619 5.1965-11.6619 11.662 0 6.4655 5.1965 11.662 11.6619 11.662 6.4655 0 11.662-5.1965 11.662-11.662z" stroke="#FF5D29" stroke-width="2.7268"/></svg>

<svg width="55" height="54" viewBox="0 0 55 54" fill="none" xmlns="http://www.w3.org/2000/svg">
<path d="M16.2642 0.0351562C7.70345 0.0351562 0.719727 7.01888 0.719727 15.5796V38.0434C0.719727 46.6041 7.70345 53.5878 16.2642 53.5878H38.7279C47.2886 53.5878 54.2724 46.6041 54.2724 38.0434V15.5796C54.2724 7.01888 47.2886 0.0351562 38.7279 0.0351562H16.2642ZM16.2642 4.15459H38.7279C45.06 4.15459 50.1529 9.23952 50.1529 15.5796V38.0434C50.1529 44.3754 45.068 49.4684 38.7279 49.4684H16.2642C9.93213 49.4684 4.83916 44.3834 4.83916 38.0434V15.5796C4.83916 9.24756 9.92409 4.15459 16.2642 4.15459ZM42.9439 8.27402C41.2382 8.27402 39.8543 9.6579 39.8543 11.3636C39.8543 13.0693 41.2382 14.4532 42.9439 14.4532C44.6496 14.4532 46.0335 13.0693 46.0335 11.3636C46.0335 9.6579 44.6496 8.27402 42.9439 8.27402ZM27.496 12.3935C19.5549 12.3935 13.078 18.8703 13.078 26.8115C13.078 34.7526 19.5549 41.2295 27.496 41.2295C35.4372 41.2295 41.9141 34.7526 41.9141 26.8115C41.9141 18.8703 35.4372 12.3935 27.496 12.3935ZM27.496 16.5129C33.2085 16.5129 37.7946 21.099 37.7946 26.8115C37.7946 32.524 33.2085 37.1101 27.496 37.1101C21.7835 37.1101 17.1975 32.524 17.1975 26.8115C17.1975 21.099 21.7835 16.5129 27.496 16.5129Z" fill="#FF5D29" fill-opacity="1"/>
<path d="M2.08313 15.5796C2.08313 7.77187 8.45644 1.39856 16.2642 1.39856H38.7279C46.5357 1.39856 52.909 7.77187 52.909 15.5796V38.0434C52.909 45.8511 46.5357 52.2244 38.7279 52.2244H16.2642C8.45644 52.2244 2.08313 45.8511 2.08313 38.0434V15.5796ZM38.7279 2.79119H16.2642C9.17048 2.79119 3.47576 8.4952 3.47576 15.5796V38.0434C3.47576 45.137 9.17977 50.8318 16.2642 50.8318H38.7279C45.8216 50.8318 51.5163 45.1277 51.5163 38.0434V15.5796C51.5163 8.4859 45.8123 2.79119 38.7279 2.79119ZM41.2177 11.3636C41.2177 10.4109 41.9912 9.63742 42.9439 9.63742C43.8966 9.63742 44.6701 10.4109 44.6701 11.3636C44.6701 12.3163 43.8966 13.0898 42.9439 13.0898C41.9912 13.0898 41.2177 12.3163 41.2177 11.3636ZM14.4414 26.8115C14.4414 19.6233 20.3079 13.7569 27.496 13.7569C34.6842 13.7569 40.5507 19.6233 40.5507 26.8115C40.5507 33.9997 34.6842 39.8661 27.496 39.8661C20.3079 39.8661 14.4414 33.9997 14.4414 26.8115ZM39.158 26.8115C39.158 20.346 33.9615 15.1495 27.496 15.1495C21.0306 15.1495 15.8341 20.346 15.8341 26.8115C15.8341 33.277 21.0306 38.4735 27.496 38.4735C33.9615 38.4735 39.158 33.277 39.158 26.8115Z" stroke="#FF5D29" stroke-opacity="1" stroke-width="2.7268"/>
</svg>
